X:126
T:Mountain Road 
R:
C:Bruce Osborne - Nov. 2002
Z:abc by bosborne@kos.net
M:3/4
L:1/8
K:Amaj
EG|A3 E Ac|f2 e2 EG|A3 c fc|d4 dc|\
B3 A Bc|d3 c de|gf ed B^B|c4 EG|\
A3 E Ac|f2 e2 EG|A3 c fc|d4 dc|\
B3 A Bc|d3 c de|gf ed BG|A4||\
ED|C2 E2 Ac|f2 e2 Ac|f2 e2 cA|E3 c BA|\
G3 F GA|B3 A Bc|gf ed B^B|c4 ED|\
C2 E2 Ac|f2 e2 Ac|f2 e2 cA|E3 c BA|\
G3 F GA|B3 A Bc|gf ed BG|A4||
